X: 28453
T: Mulqueeney's
R: reel
M: 4/4
K: Dmajor
|F2 EG FDDE|FGAG FDDE|F2 EG FDED|FABc dBAG|
F2 EG FDDG|FDAG FDDE|F2 EG FDED|FABc d2 cd||
e3 e- efed|cdef g2 fg|e3e- efed|cABc d2 cd|
deee efed|cdef g2 fg|afff geee|dfec dBAG||

